X:1
T:Redemption Ground
T:Redemption Ground
T:James McGranahan
T:Daniel Webster Whittle, 1879
T:Public Domain Courtesy of the Cyber Hymnal™
C:James McGranahan
Z:Public Domain
Z:Courtesy of the Cyber Hymnal™
%%score ( 1 2 ) ( 3 4 )
L:1/8
Q:1/4=90
M:3/4
K:C
V:1 treble 
V:2 treble 
V:3 bass 
V:4 bass 
V:1
 [EG][EG] [CE] | [Ec]3 [GB] [GB][FA] | [FA]3 [FA] [FA][CF] | [Fc]3 [FA] [FA][EG] | %4
w: 1.~Come sing, my|soul, and praise the|Lord, Who hath re-|deemed thee by His|
w: 2.~Once from my|God I wan- dered|far, And with His|ho- ly will made|
w: 3.~O joy- ous|hour! when God to|me A vi- sion|gave of Cal- va-|
w: 4.~No words of|mer- it now I|plead, But Je- sus|take for all my|
w: 5.~Come, wea- ry|soul, and here find|rest; Ac- cept re-|demp- tion, and be|
 [EG]3 [EG] [EG][CE] | [Ge]3 [Ge] [Gd][Gc] | [FA]3 [Fc] [FB][FA] | [EG][Ge] [Fd]2 ([Ec][DB]) | %8
w: blood; De- liv- ered|thee from chains that|bound, And brought thee|to re- demp- tion *|
w: war; But now my|songs to God a-|bound; I’m stand- ing|on re- demp- tion *|
w: ry; My bonds were|loosed— my soul un-|bound; I sang up-|on re- demp- tion *|
w: need; No right- eous-|ness in me is|found, Ex- cept up-|on re- demp- tion *|
w: blest; The Christ who|died, by God is|crowned To par- don|on re- demp- tion *|
 [Ec]3 ||"^Refrain" GA B | c3 [Ec] [EB][D^G] | [CA]3 A Bc | d3 [Gd] [^Fc][DF] | %13
w: ground.|||||
w: ground.|||||
w: ground.|Re- demp- tion|ground, the ground of|peace! Re- demp- tion|ground, O won- drous|
w: ground.|||||
w: ground.|||||
 [DG]3 [EG] [EG][CE] | [Ge]3 [Ge] [Gd][Gc] | [FA]3 [Fc] [FB][FA] | [EG][Ge] [Fd]2 ([Ec][DB]) | %17
w: ||||
w: ||||
w: grace! Here let our|praise to God a-|bound! Who saves us|on re- demp- tion *|
w: ||||
w: ||||
 [Ec]3 |] %18
w: |
w: |
w: ground.|
w: |
w: |
V:2
 x3 | x6 | x6 | x6 | x6 | x6 | x6 | x6 | x3 || GA B | c3 x3 | x3 A Bc | d3 x3 | x6 | x6 | x6 | x6 | %17
 x3 |] %18
V:3
 [C,C][C,C] [C,G,] | [C,G,]3 [E,G,] [F,C][F,C] | [F,C]3 [F,C] [F,C][F,A,] | %3
 [F,A,]3 [F,C] [C,C][C,C] | [C,C]3 [C,C] [C,C][C,G,] | [C,C]3 [C,C] [D,B,][E,C] | %6
 [F,C]3 [F,A,] [F,B,][F,C] | [C,C][C,C] [F,A,]2 G,2 | [C,G,]3 || G,A, B, | C3 A, [E,^G,][E,B,] | %11
 [A,,A,]3 A, B,C | D3 [D,B,] [D,A,][D,C] | [G,,G,B,]3 [C,C] [C,C][C,G,] | %14
 [C,C]3 [C,C] [D,B,][E,C] | [F,C]3 [F,A,] [F,B,][F,C] | [C,C][C,C] [F,A,]2 G,2 | [C,G,]3 |] %18
V:4
 x3 | x6 | x6 | x6 | x6 | x6 | x6 | x4 G,2 | x3 || G,A, B, | C3 A, x2 | x3 A, B,C | D3 x3 | x6 | %14
 x6 | x6 | x4 G,2 | x3 |] %18

